img/vector-7.svg

<svg fill="none" height="44" viewBox="0 0 118 44" width="118" xmlns="http://www.w3.org/2000/svg"><path d="m33.2073 38.0812-31.16422-27.6639c-2.325229-2.06406-2.284311-5.71297.08655-7.71802 1.42302-1.20345 3.38937-1.53075 5.12646-.8533l42.38891 16.53142c5.7004 2.2231 12.0597 1.9961 17.5815-.6278l34.8745-16.57177c3.451-1.639603 7.583-.379232 9.543 2.9105l5.843 9.81057-60.2478 27.7574c-8.0033 3.6873-17.4305 2.2848-24.0319-3.5751z" fill="#241ed3"/></svg>

<svg width="118" height="44" viewBox="0 0 118 44" fill="none" xmlns="http://www.w3.org/2000/svg">
<path d="M33.2073 38.0812L2.04308 10.4173C-0.282149 8.35324 -0.241231 4.70433 2.12963 2.69928C3.55265 1.49583 5.519 1.16853 7.25609 1.84598L49.645 18.3774C55.3454 20.6005 61.7047 20.3735 67.2265 17.7496L102.101 1.17783C105.552 -0.461773 109.684 0.798598 111.644 4.08833L117.487 13.8989L57.2392 41.6563C49.2359 45.3436 39.8087 43.9411 33.2073 38.0812Z" fill="#241ED3"/>
</svg>
